X: 3321
T: Belle Bergère
R: waltz
M: 3/4
K: Cmajor
z2 G2|:c6|d2 c2 d2|e2 c2 d2|e6|
d2 f2 e2|d6-|d4 e2|c6|d2 c2 d2|e2 c2 d2|e6|f2 d2 e2|c6-|
c4 ef|g6|g2 a2 g2|f2 d2 e2|f6|f2 g2 f2|e2 c2 d2|e6|
d2 f2 e2|d6-|d4 ef|g6|g2 a2 g2|f2 d2 e2|f6|
f2 g2 f2|e2 c2 d2|e6|f2 d2 e2|c6-|1 c4 G2:|2 c6||

